X:1
T:CUCKOO
M:3/8
Q:1/4=120
K:Eb
B4c2|B4G2|A4B2|G2G4|B4c2|B4G2|A4B2|G2A2B2|
c4_d2|e2_d2c2|B4G2|B4G2|F4G2|A4B2|G2A2B2|
c4_d2|e2_d2c2|B4G2|B4G2|F4G2|A4B2|G6|-G2||
